static/assets/images/products/kubestash/addons/postgres-stash-addon.svg

<svg width="32" height="32" viewBox="0 0 32 32" fill="none" xmlns="http://www.w3.org/2000/svg">
<g clip-path="url(#clip0)">
<path d="M25.4781 8.31857C25.0637 8.31857 24.6494 8.2867 24.2351 8.31857C23.8845 8.35044 23.5339 8.41419 23.1833 8.54168C22.2271 8.8604 21.6215 9.75283 21.7171 10.7409C21.749 11.5696 21.9084 12.3982 22.259 13.1632C22.6414 14.0875 23.0558 15.0118 23.5657 15.8724C23.7888 16.2867 24.012 16.701 24.2351 17.1473C24.49 17.6253 24.7769 18.0716 25.1275 18.4859C25.1912 18.5496 25.255 18.6453 25.3187 18.7409L25.2231 18.7728C24.5219 18.964 24.012 19.6014 24.0438 20.3345C23.9163 22.5975 23.5657 24.7967 23.247 27.0277C23.1833 27.3465 23.1195 27.6652 23.0239 27.9839C22.7689 28.8126 22.1315 29.4819 21.2709 29.705C20.8247 29.8644 20.3466 29.96 19.9004 30.0237C18.9442 30.215 17.9562 29.705 17.5418 28.8126C17.255 28.2708 17.0956 27.6971 17.0637 27.0915C16.9044 25.1154 16.8725 23.1074 16.9044 21.1313C16.9363 20.8126 16.9044 20.462 16.8406 20.1433C16.7131 19.4739 16.1713 18.9321 15.4701 18.8365C15.3108 18.8046 15.1514 18.8046 14.992 18.8365C15.0239 18.7409 15.0239 18.6453 15.0558 18.5496C15.3426 17.7847 15.6295 17.0198 15.9482 16.2867C16.4263 15.0755 16.6175 13.7688 16.4582 12.4939C16.3944 11.7927 16.2669 11.1233 16.1394 10.454C15.9801 9.211 14.8327 8.35044 13.5896 8.5098C13.5578 8.5098 13.5259 8.5098 13.494 8.5098C12.6653 8.57355 11.8685 8.82853 11.1355 9.211L10.9761 9.24287C11.008 8.92415 11.0398 8.66917 11.0717 8.38231C11.2311 7.2349 11.5817 6.08749 12.1235 5.06757C12.6653 4.01578 13.5259 3.15522 14.6096 2.64526C15.4382 2.29467 16.3625 2.10343 17.2869 2.16718C20.3785 2.23092 23.2151 3.95204 24.7131 6.6612C25 7.13929 25.2231 7.71299 25.4781 8.19108C25.4781 8.22295 25.4781 8.2867 25.4781 8.31857Z" fill="#1971BD"/>
<path d="M25.8924 18.0079C25.7968 17.9442 25.7331 17.8167 25.7968 17.7211C25.7968 17.6892 25.8287 17.6892 25.8287 17.6573C26.2749 16.8605 26.498 15.9362 26.4343 15.0119C26.4024 14.3426 26.3386 13.7051 26.2749 13.0677C26.2112 12.2709 26.243 11.4741 26.3705 10.6772C26.4661 10.0398 26.498 9.40234 26.5299 8.79676C26.5299 8.50991 26.4661 8.25493 26.3386 7.99995C25.3825 5.41828 23.502 3.31469 21.0478 2.10354L20.9203 2.00792C21.3347 1.94417 21.6534 1.88043 22.0359 1.84856C23.2151 1.68919 24.3944 1.75294 25.51 2.03979C27.1036 2.42226 28.506 3.31469 29.494 4.62147C29.7171 4.97206 29.8765 5.35453 29.8765 5.76888C29.9402 6.85254 29.8765 7.93621 29.6215 8.988C28.9203 12.1434 27.7092 15.1394 25.9562 17.8804L25.8924 18.0079Z" fill="#1971BD"/>
<path d="M11.008 11.9203C10.9761 11.4422 10.9761 10.9641 10.9442 10.486C10.9442 10.3904 10.9761 10.2948 11.0398 10.2629C11.8048 9.75297 12.6653 9.43424 13.5896 9.33862C13.8127 9.33862 14.0677 9.33862 14.2908 9.40237C14.8008 9.52986 15.1833 9.9442 15.2789 10.486C15.5339 11.5697 15.6614 12.6852 15.6295 13.8008C15.5976 14.5657 15.4064 15.3307 15.0876 16.0637C14.7052 16.8605 14.4183 17.6574 14.1633 18.486C14.1315 18.5817 14.0677 18.5817 14.004 18.5817C13.239 18.5498 12.506 18.2311 11.9641 17.6892C11.1036 16.8605 10.7211 15.6813 10.8805 14.502C10.9761 13.6733 11.008 12.8127 11.0717 11.984L11.008 11.9203ZM13.9084 9.78484C13.749 9.81671 13.5896 9.84858 13.3984 9.91233C13.239 9.9442 13.1753 10.1036 13.2072 10.2629C13.2072 10.2629 13.2072 10.2948 13.239 10.2948C13.3984 10.741 13.9084 10.996 14.3865 10.8366C14.5139 10.8048 14.6414 10.7091 14.737 10.6135C14.9602 10.3904 14.9283 10.1354 14.6414 10.0079C14.3865 9.9442 14.1633 9.84858 13.9084 9.78484Z" fill="#1971BD"/>
<path d="M25.6375 9.27477C25.5737 9.68912 25.5418 10.1035 25.4781 10.5178C25.2869 11.5377 25.2869 12.5895 25.4462 13.6413C25.6056 14.4381 25.6056 15.2349 25.4781 16.0317C25.4143 16.3505 25.3187 16.6692 25.1912 17.0517C25.1275 16.9879 25.1275 16.956 25.1275 16.956C24.6494 16.0317 24.1394 15.1074 23.6614 14.1513C23.2151 13.3226 22.8964 12.462 22.7052 11.5377C22.6096 11.1871 22.6096 10.8047 22.6414 10.4222C22.7371 9.81661 23.2151 9.37039 23.8207 9.30665C24.3944 9.21103 24.9681 9.17916 25.5418 9.27477C25.5737 9.2429 25.6056 9.27477 25.6375 9.27477ZM23.9801 10.5178C24.2988 10.4859 24.5857 10.3266 24.7131 10.0397C24.8088 9.84848 24.7769 9.72099 24.5857 9.65724C24.2032 9.52975 23.757 9.5935 23.4064 9.81661C23.2789 9.88035 23.247 10.0078 23.2789 10.1353C23.2789 10.1672 23.3108 10.1991 23.3426 10.2309C23.502 10.4222 23.757 10.5178 23.9801 10.5178Z" fill="#1971BD"/>
<path d="M29.749 19.8246C29.6853 19.8564 29.6215 19.952 29.5259 20.0158C28.7928 20.5576 27.9004 20.9082 26.9761 21.0038C26.4343 21.0995 25.8606 21.0995 25.3187 21.0038C24.9044 20.9401 24.9044 20.9082 24.9044 20.4939C24.8725 20.0158 25.255 19.6015 25.7649 19.5696H25.7968C25.8287 19.5696 25.8606 19.5696 25.8924 19.5696C26.4661 19.9202 27.1355 20.0795 27.8048 20.0158C28.4422 19.952 29.0797 19.8883 29.749 19.8246Z" fill="#1971BD"/>
<path d="M12.5378 22.2152C12.5697 22.2152 12.6335 22.2471 12.6653 22.2471C13.8446 22.4383 15.0558 21.9921 15.7888 21.0359C15.7888 21.0359 15.7888 21.0359 15.8207 21.004C16.1076 20.6853 16.1076 20.1753 15.7888 19.8885C15.502 19.5698 15.1833 19.506 14.8645 19.8885C14.6414 20.1435 14.4502 20.3985 14.2271 20.6534C13.9721 20.9722 13.6215 21.2271 13.239 21.3546C12.9522 21.4502 12.6335 21.5459 12.3147 21.6096C12.1873 21.6415 12.0598 21.6734 11.9323 21.7052C12.1235 21.8646 12.3466 22.024 12.5378 22.2152Z" fill="#1971BD"/>
<path d="M3.48606 12.1435C3.93227 14.3109 4.56972 16.4145 5.39841 18.4862C5.46215 18.6137 5.49402 18.7411 5.55777 18.8686C6.60956 19.1555 7.59761 19.7292 8.49004 20.5898C8.6494 20.7491 8.96813 20.8766 9.22311 20.8766C9.25498 20.8766 9.31873 20.8766 9.3506 20.8766C9.9243 20.2392 10.4661 19.6017 11.0398 18.9324C11.1673 18.773 11.3267 18.6137 11.4861 18.4543L11.3904 18.3587C10.3068 17.3706 9.76494 15.9045 9.95618 14.4384C10.0837 13.4822 10.1155 12.526 10.0837 11.538C9.98805 10.3587 10.0199 9.14752 10.2112 7.96824C10.4024 6.72521 10.7849 5.54593 11.3904 4.46226C11.7092 3.88856 12.0916 3.3786 12.5378 2.93238L12.4422 2.86864C11.5179 2.58178 10.5618 2.35868 9.5737 2.23119C8.61753 2.1037 7.66135 2.1037 6.73705 2.29493C5.07968 2.54991 3.74104 3.72919 3.26295 5.32282C2.88048 6.56585 2.75299 7.87262 2.94422 9.17939C3.10359 10.1993 3.29482 11.1874 3.48606 12.1435Z" fill="#1971BD"/>
<path d="M15.9801 22.1196L15.757 22.2471C15.0239 22.8208 14.1315 23.1395 13.2072 23.1395C13.3984 23.4583 13.5259 23.8089 13.6215 24.1913C14.1315 24.1595 14.6414 24.032 15.1195 23.8407C15.1195 23.8726 15.1195 23.9045 15.1195 23.9364C15.1514 24.6694 15.1833 25.4344 15.2151 26.1674C15.5339 26.3905 15.8207 26.6455 16.0757 26.9005C15.9482 25.3706 15.8845 23.8407 15.9163 22.279V22.1196H15.9801Z" fill="#1971BD"/>
<path d="M12.3147 19.0279C12.2191 18.9642 12.1554 18.996 12.0916 19.0598C11.5179 19.6972 10.9442 20.3666 10.3705 21.004C10.5299 21.0359 10.6574 21.0678 10.7849 21.1315C11.0717 21.004 11.3904 20.8765 11.7092 20.8128C12.0598 20.7172 12.4104 20.6534 12.761 20.5578C13.0478 20.494 13.3028 20.3028 13.494 20.0797L14.004 19.4741L13.494 19.4104C13.0797 19.3466 12.6972 19.2191 12.3147 19.0279Z" fill="#1971BD"/>
<path d="M30.6733 17.9761C30.2271 17.8805 29.749 17.8805 29.3028 18.008C28.8884 18.0717 28.4741 18.1355 28.0279 18.1992L28.1554 17.9761C29.6853 15.3307 30.8008 12.4303 31.4382 9.43426C31.7251 8.19123 31.8207 6.88446 31.7251 5.60956C31.6613 4.84462 31.4064 4.14343 30.9602 3.53785C29.494 1.65737 27.3586 0.446215 25 0.12749C23.2151 -0.12749 21.3665 0 19.6135 0.50996C19.5179 0.541833 19.4542 0.541833 19.3586 0.541833C18.6574 0.478088 17.988 0.38247 17.2868 0.38247C15.9163 0.318725 14.5139 0.63745 13.3028 1.2749C13.239 1.2749 13.1753 1.2749 13.1116 1.24303C12.3785 1.05179 11.6454 0.828685 10.9123 0.669323C9.44621 0.318725 7.94821 0.286853 6.4502 0.541833C4.05976 0.924303 2.08366 2.64542 1.44621 5.00398C0.936255 6.7251 0.87251 8.50996 1.19123 10.2629C1.54183 12.4303 2.05179 14.5339 2.72111 16.6374C2.91235 17.3386 3.16733 18.008 3.42231 18.6773C3.80478 18.6454 4.15538 18.6773 4.50597 18.7092C4.4741 18.6135 4.44223 18.5179 4.37848 18.4223C3.51793 16.1594 2.8486 13.8008 2.40239 11.4422C2.24303 10.6773 2.11554 9.91235 2.01992 9.14741C1.82868 7.68127 2.01992 6.21514 2.49801 4.84462C3.10358 3.15538 4.53785 1.91235 6.32271 1.56175C7.47012 1.2749 8.6494 1.24303 9.79681 1.40239C10.9761 1.56175 12.1554 1.84861 13.2709 2.23108C13.3347 2.26295 13.4303 2.23108 13.494 2.1992C14.6414 1.46614 16.0119 1.14741 17.3825 1.21116C18.0518 1.24303 18.7211 1.30677 19.3586 1.46614C19.4223 1.46614 19.5179 1.46614 19.5817 1.43426C21.7809 0.701195 24.2032 0.669323 26.4343 1.33865C27.9323 1.81673 29.2709 2.74104 30.259 4.01594C30.6096 4.49402 30.8008 5.06773 30.8327 5.64143C30.9283 6.78884 30.8327 7.96813 30.5458 9.11554C29.749 12.494 28.4422 15.6175 26.6255 18.4861L26.4343 18.8048L26.4024 18.8685C26.5617 18.9323 26.753 18.996 26.9123 19.0598C27.5179 19.1554 28.1554 19.1554 28.7609 19.0598C29.1434 18.996 29.5259 18.9323 29.9402 18.8685C30.0996 18.8367 30.259 18.8685 30.3864 18.9004C30.4502 18.9004 30.5139 18.9323 30.5777 18.9641C30.8964 19.0916 31.0239 19.4741 30.8645 19.761C30.7689 20.0159 30.6096 20.239 30.4183 20.4303C29.6215 21.1952 28.6016 21.6733 27.5179 21.8327C26.8167 21.9602 26.1474 21.992 25.4462 21.9283C25.255 21.8964 25.0319 21.8645 24.8406 21.8327C24.7769 22.3108 24.745 22.8207 24.6813 23.2988C24.49 24.7331 24.2669 26.1992 24.0438 27.6335C23.9801 27.9841 23.8526 28.3347 23.6932 28.6853C23.4064 29.3865 22.8645 29.9602 22.1952 30.2789C21.3984 30.6932 20.506 30.9163 19.6135 30.9482C18.7211 31.0119 17.8606 30.6614 17.2868 30.0558C17.2868 30.2151 17.2868 30.3426 17.255 30.502C17.2231 30.7251 17.1912 30.9482 17.1275 31.1394C17.51 31.4263 17.9243 31.6494 18.4024 31.7769C18.5936 31.8406 18.8167 31.8725 19.008 31.9044H19.7729C19.8048 31.9044 19.8048 31.8725 19.8366 31.8725C20.3466 31.7769 20.8566 31.6813 21.3347 31.5538C22.3546 31.2988 23.2789 30.7251 23.9482 29.8645C24.5538 29.0359 24.9681 28.0797 25.1594 27.0916C25.4143 25.9123 25.5418 24.7012 25.5418 23.49C25.5418 23.3307 25.5737 23.1713 25.5737 22.9801H25.6693C26.1793 22.9482 26.7211 22.9482 27.2311 22.9163C28.5378 22.7888 29.7809 22.3108 30.8008 21.5139C31.2151 21.2271 31.5339 20.8446 31.7888 20.3984C31.8526 20.2709 31.9163 20.1434 31.9482 19.9841C32.1076 19.0598 31.5657 18.1992 30.6733 17.9761Z" fill="#1971BD"/>
<path d="M6.00398 22.1514C7.56574 23.7131 9.19123 25.3067 10.8486 26.9641C10.0837 26.9641 9.31872 26.9641 8.49004 26.9641C8.49004 28.6534 8.49004 30.3107 8.49004 31.9681C6.76892 31.9681 5.14342 31.9681 3.45418 31.9681C3.45418 30.3107 3.45418 28.6852 3.45418 26.996C2.6255 26.996 1.86056 26.996 1.06374 26.996C2.75299 25.3386 4.37848 23.745 6.00398 22.1514Z" fill="#1971BD"/>
</g>
<defs>
<clipPath id="clip0">
<rect width="30.9482" height="32" fill="white" transform="translate(1)"/>
</clipPath>
</defs>
</svg>

<svg xmlns="http://www.w3.org/2000/svg" width="32" height="32" fill="none" xmlns:v="https://vecta.io/nano"><g clip-path="url(#A)" fill="#1971bd"><path d="M25.478 8.319c-.414 0-.829-.032-1.243 0-.351.032-.701.096-1.052.223-.956.319-1.562 1.211-1.466 2.199.032.829.191 1.657.542 2.422.382.924.797 1.849 1.307 2.709l.669 1.275a7.59 7.59 0 0 0 .892 1.339c.064.064.127.159.191.255l-.096.032c-.701.191-1.211.829-1.179 1.562-.128 2.263-.478 4.462-.797 6.693l-.223.956c-.255.829-.892 1.498-1.753 1.721-.446.159-.924.255-1.37.319-.956.191-1.944-.319-2.359-1.211a4.1 4.1 0 0 1-.478-1.721c-.159-1.976-.191-3.984-.159-5.96a3.44 3.44 0 0 0-.064-.988c-.127-.669-.669-1.211-1.37-1.307a1.2 1.2 0 0 0-.478 0c.032-.096.032-.191.064-.287l.892-2.263c.478-1.211.669-2.518.51-3.793-.064-.701-.191-1.371-.319-2.04-.159-1.243-1.307-2.104-2.55-1.944h-.096c-.829.064-1.626.319-2.358.701l-.159.032.096-.861c.159-1.147.51-2.295 1.052-3.315.542-1.052 1.402-1.912 2.486-2.422.829-.351 1.753-.542 2.677-.478 3.092.064 5.928 1.785 7.426 4.494.287.478.51 1.052.765 1.53v.127zm.414 9.689c-.096-.064-.159-.191-.096-.287 0-.032.032-.032.032-.064a4.77 4.77 0 0 0 .606-2.645l-.159-1.944a10.02 10.02 0 0 1 .096-2.391c.096-.637.128-1.275.159-1.88 0-.287-.064-.542-.191-.797-.956-2.582-2.837-4.685-5.291-5.896l-.127-.096 1.116-.159a9.07 9.07 0 0 1 3.474.191c1.594.382 2.996 1.275 3.984 2.582.223.351.383.733.383 1.147.064 1.084 0 2.167-.255 3.219-.701 3.155-1.912 6.151-3.665 8.892l-.064.127zM11.008 11.92l-.064-1.434c0-.096.032-.191.096-.223a5.6 5.6 0 0 1 2.55-.924c.223 0 .478 0 .701.064.51.127.892.542.988 1.084.255 1.084.383 2.199.351 3.315-.032.765-.223 1.53-.542 2.263-.382.797-.669 1.594-.924 2.422-.032.096-.096.096-.159.096-.765-.032-1.498-.351-2.04-.893-.86-.829-1.243-2.008-1.084-3.187l.191-2.518-.064-.064zm2.9-2.135l-.51.127c-.159.032-.223.191-.191.351 0 0 0 .032.032.032.159.446.669.701 1.147.542.127-.032.255-.128.351-.223.223-.223.191-.478-.096-.606l-.733-.223zm11.73-.51l-.159 1.243c-.191 1.02-.191 2.072-.032 3.124.159.797.159 1.594.032 2.39-.064.319-.159.637-.287 1.02-.064-.064-.064-.096-.064-.096l-1.466-2.805a9.53 9.53 0 0 1-.956-2.614c-.096-.351-.096-.733-.064-1.115a1.32 1.32 0 0 1 1.179-1.116c.574-.096 1.147-.127 1.721-.032.032-.032.064 0 .096 0zm-1.657 1.243c.319-.032.606-.191.733-.478.096-.191.064-.319-.127-.382a1.41 1.41 0 0 0-1.179.159c-.128.064-.159.191-.128.319 0 .032.032.064.064.096a.85.85 0 0 0 .637.287zm5.768 9.307c-.064.032-.127.127-.223.191a5.23 5.23 0 0 1-2.55.988 4.82 4.82 0 0 1-1.657 0c-.414-.064-.414-.096-.414-.51-.032-.478.351-.892.861-.924h.032.096c.574.351 1.243.51 1.912.446l1.944-.191zm-17.211 2.39c.032 0 .096.032.127.032 1.179.191 2.39-.255 3.124-1.211l.032-.032c.287-.319.287-.829-.032-1.116-.287-.319-.606-.383-.924 0l-.637.765a2.17 2.17 0 0 1-.988.701 7.81 7.81 0 0 1-.924.255l-.382.096.606.51zM3.486 12.144a37.22 37.22 0 0 0 1.912 6.343c.064.128.096.255.159.382 1.052.287 2.04.861 2.932 1.721.159.159.478.287.733.287h.127l1.689-1.944c.127-.159.287-.319.446-.478l-.096-.096a4.52 4.52 0 0 1-1.434-3.92c.128-.956.159-1.912.128-2.9-.096-1.179-.064-2.39.127-3.57.191-1.243.574-2.422 1.179-3.506.319-.574.701-1.084 1.147-1.53l-.096-.064a17.02 17.02 0 0 0-2.868-.637c-.956-.127-1.912-.127-2.837.064-1.657.255-2.996 1.434-3.474 3.028-.382 1.243-.51 2.55-.319 3.857l.542 2.964zM15.98 22.12l-.223.128c-.733.574-1.625.892-2.55.892.191.319.319.669.414 1.052a4.87 4.87 0 0 0 1.498-.351v.096l.096 2.231a6.5 6.5 0 0 1 .861.733l-.159-4.622v-.159h.064zm-3.665-3.092c-.096-.064-.159-.032-.223.032l-1.721 1.944a1.58 1.58 0 0 1 .414.127c.287-.127.605-.255.924-.319l1.052-.255c.287-.064.542-.255.733-.478l.51-.606-.51-.064c-.414-.064-.797-.191-1.179-.383zm18.358-1.052a2.85 2.85 0 0 0-1.37.032l-1.275.191.128-.223a29.29 29.29 0 0 0 3.283-8.542c.287-1.243.383-2.55.287-3.825a4.01 4.01 0 0 0-.765-2.072A9.08 9.08 0 0 0 25 .127a12.86 12.86 0 0 0-5.386.383c-.096.032-.159.032-.255.032l-2.072-.16c-1.37-.064-2.773.255-3.984.892-.064 0-.127 0-.191-.032l-2.2-.573A11.07 11.07 0 0 0 6.45.542C4.06.924 2.084 2.645 1.446 5.004.936 6.725.873 8.51 1.191 10.263a44.16 44.16 0 0 0 1.53 6.374c.191.701.446 1.371.701 2.04.382-.032.733 0 1.084.032a1.13 1.13 0 0 0-.127-.287 41.38 41.38 0 0 1-1.976-6.98L2.02 9.147c-.191-1.466 0-2.932.478-4.303a5.08 5.08 0 0 1 3.825-3.283c1.147-.287 2.327-.319 3.474-.159 1.179.159 2.359.446 3.474.829.064.032.159 0 .223-.032 1.147-.733 2.518-1.052 3.889-.988.669.032 1.339.096 1.976.255.064 0 .159 0 .223-.032a11.43 11.43 0 0 1 6.853-.096 7.86 7.86 0 0 1 3.825 2.677 3.04 3.04 0 0 1 .574 1.625c.096 1.147 0 2.327-.287 3.474-.797 3.378-2.104 6.502-3.92 9.371l-.191.319-.032.064c.159.064.351.127.51.191a5.97 5.97 0 0 0 1.849 0l1.179-.191c.159-.032.319 0 .446.032.064 0 .128.032.191.064a.57.57 0 0 1 .287.797c-.096.255-.255.478-.446.669a5.29 5.29 0 0 1-2.9 1.402 7.54 7.54 0 0 1-2.072.096l-.606-.096c-.064.478-.096.988-.159 1.466l-.637 4.335c-.064.351-.191.701-.351 1.052a3.05 3.05 0 0 1-1.498 1.594 6.09 6.09 0 0 1-2.582.669 2.94 2.94 0 0 1-2.327-.892c0 .159 0 .287-.032.446-.032.223-.064.446-.127.637.383.287.797.51 1.275.638.191.064.414.096.606.127h.765c.032 0 .032-.032.064-.032.51-.096 1.02-.191 1.498-.319a4.75 4.75 0 0 0 2.613-1.689 6.96 6.96 0 0 0 1.211-2.773 17.06 17.06 0 0 0 .382-3.602c0-.159.032-.319.032-.51h.096c.51-.032 1.052-.032 1.562-.064 1.307-.128 2.55-.605 3.57-1.402.414-.287.733-.669.988-1.116a1.6 1.6 0 0 0 .159-.414c.159-.924-.383-1.785-1.275-2.008zM6.004 22.151l4.845 4.813H8.49v5.004H3.454v-4.972h-2.39l4.94-4.845z"/></g><defs><clipPath id="A"><path fill="#fff" transform="translate(1)" d="M0 0h30.948v32H0z"/></clipPath></defs></svg>
